X:2032
T:Boolavogue
T:Eochaill
R:Waltz
C:Trad
O:Ireland
Z:Paul Hardy's Session Tunebook 2015 (see www.paulhardy.net). Creative Commons cc by-nc-sa licenced.
M:3/4
L:1/8
Q:1/4=100
K:G
D2|"G"G4 D2|G3 B d2|"C"g4 f2|e g3 e2|"G"d4 e2|"Em"BA G3 B|"Am"A4 G2|"C"E4 "D7"F2|
"G"G4 D2|G3 B d2|"C"g4 f2|e g3 e2|"G"d4 e2|"Em"BA G2 B2|"D7"A4 F2|"G"G4:|
|:B2|"G"d4 B2|"Bm"d e3 f2|"C"g4 f2|e g3 e2|"G"d4 e2|"Em"B4 GB|"Am"A4 G2|"C"E4 "D7"F2|
"G"G4 D2|G4 Bd|"C"g4 f2|e g3 e2|"G"d4 e2|"Em"BA G2 B2|"D7"A4 F2|"G"G4:|

